io/trophy-sharp.svg

<svg xmlns="http://www.w3.org/2000/svg" viewBox="0 0 512 512" height="1em" width="1em">
  <path d="M399.9 80V32H112v48H32v38c0 32 9.5 62.79 26.76 86.61 13.33 18.4 34.17 31.1 52.91 37.21 5.44 29.29 20.2 57.13 50.19 79.83 22 16.66 48.45 28.87 72.14 33.86V436h-74v44h192v-44h-74v-80.49c23.69-5 50.13-17.2 72.14-33.86 30-22.7 44.75-50.54 50.19-79.83 18.74-6.11 39.58-18.81 52.91-37.21C470.5 180.79 480 150 480 118V80ZM94.4 178.8c-10.68-14.68-17.17-34.4-18.24-54.8H112v67.37c-3.94-1.14-12.92-6.12-17.6-12.57Zm323.2 0c-4.6 6.61-11.6 12.58-17.6 12.58 0-22.4 0-46.29-.05-67.38h35.9c-1.08 20.4-7.85 39.9-18.25 54.8Z"/>
</svg>

<svg xmlns="http://www.w3.org/2000/svg" viewBox="0 0 512 512" height="1em" width="1em">
  <path d="M399.9,80s0-27.88,0-48H112V80H32v38c0,32,9.5,62.79,26.76,86.61,13.33,18.4,34.17,31.1,52.91,37.21,5.44,29.29,20.2,57.13,50.19,79.83,22,16.66,48.45,28.87,72.14,33.86V436H160v44H352V436H278V355.51c23.69-5,50.13-17.2,72.14-33.86,30-22.7,44.75-50.54,50.19-79.83,18.74-6.11,39.58-18.81,52.91-37.21C470.5,180.79,480,150,480,118V80ZM94.4,178.8C83.72,164.12,77.23,144.4,76.16,124H112v67.37C108.06,190.23,99.08,185.25,94.4,178.8Zm323.2,0C413,185.41,406,191.38,400,191.38c0-22.4,0-46.29-.05-67.38h35.9C434.77,144.4,428,163.9,417.6,178.8Z"/>
</svg>
